src/assets/icons/shopping.svg

<svg xmlns="http://www.w3.org/2000/svg" xmlns:xlink="http://www.w3.org/1999/xlink"  version="1.1" width="25.125946044921875" height="23" viewBox="0 0 25.125946044921875 23"><g><g><path d="M4.83451,1.32425C4.70377,0.559597,4.041,0.000443896,3.26525,0.000330157L1.01343,0L0.831145,0.0163254C0.35845,0.102122,0,0.515843,0,1.01328C0,1.57299,0.453729,2.02672,1.01343,2.02672L2.23052,2.02672C2.61842,2.02672,2.94985,2.30627,3.01526,2.6886L5.37198,16.4645C5.5028,17.2292,6.16567,17.7883,6.94145,17.7883L22.0342,17.7883C22.8236,17.7883,23.4939,17.2099,23.6093,16.429L25.1088,6.28888C25.1202,6.21176,25.126,6.13391,25.126,6.05595C25.126,5.17657,24.4131,4.46369,23.5337,4.46369L6.04284,4.46369C5.65492,4.46369,5.32347,4.1841,5.25809,3.80172L4.83451,1.32425ZM22.1112,6.49048L6.66167,6.49048C6.22198,6.49048,5.86554,6.84692,5.86554,7.28661L5.87694,7.42087L7.19069,15.0995C7.2561,15.4818,7.58753,15.7614,7.97542,15.7614L20.9772,15.7614C21.372,15.7614,21.7071,15.4721,21.7648,15.0815L22.8988,7.40292C22.963,6.96795,22.6625,6.56326,22.2275,6.49902L22.1112,6.49048ZM8.69747,23Q8.78293,23,8.86797,22.9916Q8.95302,22.9832,9.03683,22.9666Q9.12065,22.9499,9.20242,22.9251Q9.2842,22.9003,9.36315,22.8676Q9.4421,22.8349,9.51747,22.7946Q9.59283,22.7543,9.66389,22.7068Q9.73494,22.6594,9.801,22.6051Q9.86706,22.5509,9.92748,22.4905Q9.98791,22.4301,10.0421,22.364Q10.0963,22.298,10.1438,22.2269Q10.1913,22.1558,10.2316,22.0805Q10.2719,22.0051,10.3046,21.9262Q10.3373,21.8472,10.3621,21.7654Q10.3869,21.6837,10.4035,21.5998Q10.4202,21.516,10.4286,21.431Q10.437,21.3459,10.437,21.2605Q10.437,21.175,10.4286,21.09Q10.4202,21.0049,10.4035,20.9211Q10.3869,20.8373,10.3621,20.7555Q10.3373,20.6738,10.3046,20.5948Q10.2719,20.5159,10.2316,20.4405Q10.1913,20.3651,10.1438,20.2941Q10.0963,20.223,10.0421,20.157Q9.98791,20.0909,9.92748,20.0305Q9.86706,19.9701,9.801,19.9158Q9.73494,19.8616,9.66389,19.8142Q9.59283,19.7667,9.51747,19.7264Q9.4421,19.6861,9.36315,19.6534Q9.2842,19.6207,9.20242,19.5959Q9.12065,19.5711,9.03683,19.5544Q8.95302,19.5377,8.86797,19.5294Q8.78293,19.521,8.69747,19.521Q8.61202,19.521,8.52697,19.5294Q8.44193,19.5377,8.35811,19.5544Q8.2743,19.5711,8.19252,19.5959Q8.11075,19.6207,8.0318,19.6534Q7.95285,19.6861,7.87748,19.7264Q7.80211,19.7667,7.73106,19.8142Q7.66001,19.8616,7.59395,19.9158Q7.52789,19.9701,7.46746,20.0305Q7.40704,20.0909,7.35283,20.157Q7.29861,20.223,7.25113,20.2941Q7.20366,20.3651,7.16337,20.4405Q7.12309,20.5159,7.09039,20.5948Q7.05769,20.6738,7.03288,20.7555Q7.00807,20.8373,6.9914,20.9211Q6.97473,21.0049,6.96635,21.09Q6.95798,21.175,6.95798,21.2605Q6.95798,21.3459,6.96635,21.431Q6.97473,21.516,6.9914,21.5998Q7.00807,21.6837,7.03288,21.7654Q7.05769,21.8472,7.09039,21.9262Q7.12309,22.0051,7.16337,22.0805Q7.20366,22.1558,7.25113,22.2269Q7.29861,22.298,7.35282,22.364Q7.40704,22.4301,7.46746,22.4905Q7.52789,22.5509,7.59395,22.6051Q7.66001,22.6594,7.73106,22.7068Q7.80211,22.7543,7.87748,22.7946Q7.95285,22.8349,8.0318,22.8676Q8.11075,22.9003,8.19252,22.9251Q8.2743,22.9499,8.35811,22.9666Q8.44193,22.9832,8.52697,22.9916Q8.61202,23,8.69747,23ZM20.2941,23Q20.3796,23,20.4646,22.9916Q20.5497,22.9832,20.6335,22.9666Q20.7173,22.9499,20.7991,22.9251Q20.8808,22.9003,20.9598,22.8676Q21.0387,22.8349,21.1141,22.7946Q21.1895,22.7543,21.2605,22.7068Q21.3316,22.6594,21.3976,22.6051Q21.4637,22.5509,21.5241,22.4905Q21.5846,22.4301,21.6388,22.364Q21.693,22.298,21.7405,22.2269Q21.7879,22.1558,21.8282,22.0805Q21.8685,22.0051,21.9012,21.9262Q21.9339,21.8472,21.9587,21.7654Q21.9835,21.6837,22.0002,21.5998Q22.0169,21.516,22.0252,21.431Q22.0336,21.3459,22.0336,21.2605Q22.0336,21.175,22.0252,21.09Q22.0169,21.0049,22.0002,20.9211Q21.9835,20.8373,21.9587,20.7555Q21.9339,20.6738,21.9012,20.5948Q21.8685,20.5159,21.8282,20.4405Q21.7879,20.3651,21.7405,20.2941Q21.693,20.223,21.6388,20.157Q21.5846,20.0909,21.5241,20.0305Q21.4637,19.9701,21.3976,19.9158Q21.3316,19.8616,21.2605,19.8142Q21.1895,19.7667,21.1141,19.7264Q21.0387,19.6861,20.9598,19.6534Q20.8808,19.6207,20.7991,19.5959Q20.7173,19.5711,20.6335,19.5544Q20.5497,19.5377,20.4646,19.5294Q20.3796,19.521,20.2941,19.521Q20.2087,19.521,20.1236,19.5294Q20.0386,19.5377,19.9548,19.5544Q19.8709,19.5711,19.7892,19.5959Q19.7074,19.6207,19.6284,19.6534Q19.5495,19.6861,19.4741,19.7264Q19.3988,19.7667,19.3277,19.8142Q19.2567,19.8616,19.1906,19.9158Q19.1245,19.9701,19.0641,20.0305Q19.0037,20.0909,18.9495,20.157Q18.8953,20.223,18.8478,20.2941Q18.8003,20.3651,18.76,20.4405Q18.7197,20.5159,18.687,20.5948Q18.6543,20.6738,18.6295,20.7555Q18.6047,20.8373,18.588,20.9211Q18.5714,21.0049,18.563,21.09Q18.5546,21.175,18.5546,21.2605Q18.5546,21.3459,18.563,21.431Q18.5714,21.516,18.588,21.5998Q18.6047,21.6837,18.6295,21.7654Q18.6543,21.8472,18.687,21.9262Q18.7197,22.0051,18.76,22.0805Q18.8003,22.1558,18.8478,22.2269Q18.8953,22.298,18.9495,22.364Q19.0037,22.4301,19.0641,22.4905Q19.1245,22.5509,19.1906,22.6051Q19.2567,22.6594,19.3277,22.7068Q19.3988,22.7543,19.4741,22.7946Q19.5495,22.8349,19.6284,22.8676Q19.7074,22.9003,19.7892,22.9251Q19.8709,22.9499,19.9548,22.9666Q20.0386,22.9832,20.1236,22.9916Q20.2087,23,20.2941,23Z" fill-rule="evenodd"  fill-opacity="1"/></g></g></svg>

<svg xmlns="http://www.w3.org/2000/svg" width="25.126" height="23"><path fill-rule="evenodd" d="M4.835 1.324A1.59 1.59 0 0 0 3.265 0H1.013L.831.016a1.014 1.014 0 0 0 .182 2.01h1.218c.387 0 .719.28.784.663l2.357 13.776c.13.764.794 1.323 1.57 1.323h15.092c.79 0 1.46-.578 1.575-1.359l1.5-10.14a1.593 1.593 0 0 0-1.575-1.825H6.043a.796.796 0 0 1-.785-.662zM22.11 6.49H6.661a.796.796 0 0 0-.795.797l.01.134L7.192 15.1a.796.796 0 0 0 .784.661h13.002c.395 0 .73-.289.788-.68L22.9 7.403a.796.796 0 0 0-.672-.904zM8.697 23q.086 0 .171-.008t.169-.025.165-.042.161-.057.154-.073q.076-.04.147-.088t.137-.102.126-.114.115-.127.102-.137.088-.146.073-.155.057-.16.041-.166q.017-.084.026-.169t.008-.17-.008-.171-.026-.169-.04-.165q-.026-.082-.058-.161-.033-.08-.073-.154-.04-.076-.088-.147t-.102-.137-.115-.127-.126-.114-.137-.102-.147-.088-.154-.073-.16-.057-.166-.042q-.084-.016-.169-.025-.085-.008-.17-.008t-.171.008-.169.025-.165.042-.161.057q-.08.033-.155.073t-.146.088-.137.102-.127.114-.114.127-.102.137-.088.146-.073.155-.057.16-.042.166-.025.169-.008.17.008.171.025.169.042.165.057.161q.033.08.073.155t.088.146.102.137.114.127.127.114.137.102.146.088.155.073.16.057.166.042q.084.016.169.025.085.008.17.008m11.597 0q.086 0 .17-.008.086-.009.17-.025.083-.017.165-.042t.16-.057q.08-.033.155-.073t.146-.088.138-.102.126-.114q.06-.06.115-.127.054-.066.102-.137t.087-.146.073-.155.058-.16T22 21.6t.025-.169q.009-.085.009-.17t-.009-.171-.025-.169-.041-.165-.058-.161-.073-.154q-.04-.076-.087-.147-.048-.071-.102-.137t-.115-.127-.126-.114-.137-.102-.147-.088-.154-.073-.16-.057q-.083-.025-.166-.042-.084-.016-.17-.025-.084-.008-.17-.008-.085 0-.17.008t-.17.025-.165.042-.16.057q-.08.033-.155.073t-.146.088-.137.102-.127.114-.114.127q-.055.066-.102.137-.048.071-.088.146-.04.076-.073.155t-.058.16-.041.166-.025.169-.008.17.008.171.025.169.041.165.058.161.073.155.088.146.102.137.114.127.127.114.137.102q.07.047.146.088t.154.073q.08.032.161.057.082.025.166.042.084.016.169.025.085.008.17.008"/></svg>
